X:317
T:Reel 317
L:1/8
M: 4/4
K: E minor
EF|:G2DDEFGE|AFDEFDED|EFGFGABc|d2dBAFDF|G2DFGEEF|DEFGAFDF|EFGABABd|1dBAFE2EF:|2dBAFE2BA|:BeededBd|ddAdBdAB|Beede2dB|A2BAGABc|B2dBBeed|dBAFG2FD|EFGABABc|1dBAFE2GA:|2dBAFE4|.abc